src/assets/skills/bootstrap.svg

<svg height="100pt" viewBox="0 0 100 100" width="100pt" xmlns="http://www.w3.org/2000/svg"><path d="m0 0h100v100h-100z" fill="#fff"/><path d="m0 0v100h100v-100zm74.221 70.23c-.834 2.01-2.153 3.779-3.847 5.141-1.75 1.416-3.966 2.585-6.697 3.416-2.725.847-5.966 1.272-9.722 1.272h-26.801v-58.336h28.341c5.241 0 9.441 1.178 12.585 3.584 3.166 2.416 4.741 6.016 4.741 10.875 0 2.938-.716 5.46-2.159 7.541-1.435 2.072-3.501 3.691-6.166 4.816v.191c3.559.75 6.312 2.437 8.125 5.062s2.741 5.941 2.741 9.947c0 2.241-.435 4.376-1.25 6.366zm-11.569-14.375c-1.709-1.563-4.11-2.325-7.21-2.325h-18.01v18.2h18.06c3.085 0 5.501-.8 7.21-2.415 1.709-1.604 2.584-3.891 2.584-6.835-.028-2.875-.875-5.1-2.584-6.625zm-2.5-11.763c1.65-1.4 2.459-3.403 2.459-6.016 0-2.934-.728-5.016-2.209-6.209-1.466-1.188-3.585-1.804-6.366-1.804h-16.666v16.098h16.666c2.428 0 4.5-.71 6.116-2.066z" fill="#563d7c"/></svg>

<?xml version="1.0" encoding="UTF-8" standalone="no"?><!-- Generator: Gravit.io --><svg xmlns="http://www.w3.org/2000/svg" xmlns:xlink="http://www.w3.org/1999/xlink" style="isolation:isolate" viewBox="0 0 100 100" width="100pt" height="100pt"><rect x="0" y="0" width="100" height="100" transform="matrix(1,0,0,1,0,0)" fill="rgb(255,255,255)"/><path d=" M 0 0 L 0 100 L 100 100 L 100 0 L 0 0 Z  M 74.221 70.23 C 73.387 72.24 72.068 74.009 70.374 75.371 C 68.624 76.787 66.408 77.956 63.677 78.787 C 60.952 79.634 57.711 80.059 53.955 80.059 L 27.154 80.059 L 27.154 21.723 L 55.495 21.723 C 60.736 21.723 64.936 22.901 68.08 25.307 C 71.246 27.723 72.821 31.323 72.821 36.182 C 72.821 39.12 72.105 41.642 70.662 43.723 C 69.227 45.795 67.161 47.414 64.496 48.539 L 64.496 48.73 C 68.055 49.48 70.808 51.167 72.621 53.792 C 74.434 56.417 75.362 59.733 75.362 63.739 C 75.362 65.98 74.927 68.115 74.112 70.105 L 74.221 70.23 Z  M 62.652 55.855 C 60.943 54.292 58.542 53.53 55.442 53.53 L 37.432 53.53 L 37.432 71.73 L 55.492 71.73 C 58.577 71.73 60.993 70.93 62.702 69.315 C 64.411 67.711 65.286 65.424 65.286 62.48 C 65.258 59.605 64.411 57.38 62.702 55.855 L 62.652 55.855 Z  M 60.152 44.092 C 61.802 42.692 62.611 40.689 62.611 38.076 C 62.611 35.142 61.883 33.06 60.402 31.867 C 58.936 30.679 56.817 30.063 54.036 30.063 L 37.37 30.063 L 37.37 46.161 L 54.036 46.161 C 56.464 46.161 58.536 45.451 60.152 44.095 L 60.152 44.092 Z " fill="rgb(86,61,124)"/></svg>
